assets/infoicons/WebsiteIconhell.svg

<svg viewBox="0 0 259.81 260" xmlns="http://www.w3.org/2000/svg"><g fill="#fff"><path d="m383.22 412.76c-43.49 0-78.79 36.49-78.79 81.46s35.3 81.45 78.79 81.45 78.78-36.49 78.78-81.45-35.29-81.46-78.78-81.46zm-7.88 146c-31.12-4-55.15-31.36-55.15-64.59a67.86 67.86 0 0 1 1.66-14.58l37.73 39v8.15c0 9 7.09 16.29 15.76 16.29zm54.36-20.69a15.7 15.7 0 0 0 -15-11.32h-7.88v-24.39a8 8 0 0 0 -7.87-8.14h-47.24v-16.29h15.75a8 8 0 0 0 7.88-8.15v-16.29h15.76c8.66 0 15.75-7.33 15.75-16.29v-3.34c23.09 9.69 39.4 33.07 39.4 60.36a66.05 66.05 0 0 1 -16.55 43.9z" transform="translate(-257.56 -412.76)"/><text font-family="Jost-Heavy, &quot;Jost*&quot;" font-size="60" font-weight="800" transform="matrix(.94 0 0 1 0 237.8)">WEBSITE</text></g></svg>

<svg id="Ebene_1" data-name="Ebene 1" xmlns="http://www.w3.org/2000/svg" viewBox="0 0 259.81 260"><defs><style>.cls-1,.cls-2{fill:#fff;}.cls-2{font-size:60px;font-family:Jost-Heavy, "Jost*";font-weight:800;}</style></defs><path class="cls-1" d="M383.22,412.76c-43.49,0-78.79,36.49-78.79,81.46s35.3,81.45,78.79,81.45S462,539.18,462,494.22,426.71,412.76,383.22,412.76Zm-7.88,146c-31.12-4-55.15-31.36-55.15-64.59a67.86,67.86,0,0,1,1.66-14.58l37.73,39v8.15c0,9,7.09,16.29,15.76,16.29Zm54.36-20.69a15.7,15.7,0,0,0-15-11.32h-7.88V502.36a8,8,0,0,0-7.87-8.14H351.71V477.93h15.75a8,8,0,0,0,7.88-8.15V453.49H391.1c8.66,0,15.75-7.33,15.75-16.29v-3.34c23.09,9.69,39.4,33.07,39.4,60.36A66.05,66.05,0,0,1,429.7,538.12Z" transform="translate(-257.56 -412.76)"/><text class="cls-2" transform="translate(0 237.8) scale(0.94 1)">WEBSITE</text></svg>
